!!!COM:	Stravinsky
!!!OTL:	397_Str-55/17/102-112
**kern	**kern	**kern	**kern	**kern	**kern	**dynam	**kern	**kern	**kern	**kern
*part9	*part8	*part7	*part6	*part6	*part5	*part5	*part4	*part3	*part2	*part1
*staff10	*staff9	*staff8	*staff7	*staff6	*staff5	*S	*staff4	*staff3	*staff2	*staff1
*I"Contrabass	*I"Viola	*I"Viola	*I"Organ	*	*I"Trombone	*	*I"Trumpet in C	*I"Bassoon	*I"Clarinet in Bb	*I"Oboe
*I'Cb.	*I'Vla.	*I'Vla.	*I'Org.	*	*I'Tbn.	*	*I'C Tpt.	*I'Bsn.	*I'Cl.	*I'Ob.
*clefF4	*clefC3	*clefC3	*clefF4	*clefG2	*clefF4	*	*clefG2	*clefF4	*clefG2	*clefG2
*k[]	*k[]	*k[]	*k[]	*k[]	*k[]	*	*k[]	*k[]	*k[]	*k[]
*C:	*C:	*C:	*C:	*C:	*C:	*	*C:	*C:	*C:	*C:
*M3/4	*M3/4	*M3/4	*M3/4	*M3/4	*M3/4	*	*M3/4	*M3/4	*M3/4	*M3/4
=1	=1	=1	=1	=1	=1	=1	=1	=1	=1	=1
2.r	2.r	2.r	2.r	8r	4C	.	4r	4r	4cc	8r
.	.	.	.	4c~ 4cc	.	.	.	.	.	(8cc
.	.	.	.	.	4EEn	mf	8r	(8B-XL	(8ccL	8B-XL
.	.	.	.	4c~ 4cc	.	.	8d	8dJ	8aJ	8ccJ)
.	.	.	.	.	4C#X	.	8r	8f')	8ccL)	8r
.	.	.	.	[8c~ [8cc	.	.	8f	8r	8cc'J	[8cc
=2	=2	=2	=2	=2	=2	=2	=2	=2	=2	=2
2.r	2.r	2.r	4r	8cL] 8cc]	2DD	.	8f	4r	4cc	8ccL]
.	.	.	.	8cJ 8cc	.	.	8r	.	.	8ccJ
.	.	.	4r	8r	.	.	4r	4r	8r	8r
.	.	.	.	4c 4cc	.	.	.	.	(8a-X	(8cc
.	.	.	(8B-XL	.	[4AA	.	4r	(8B-XL	8c-XL	8B-XL)
.	.	.	8GGJ)	8r	.	.	.	8GGJ)	8dd-XJ)	[8a-X'~J [8ee-X
=3	=3	=3	=3	=3	=3	=3	=3	=3	=3	=3
2.r	2.r	2.r	8r	2.r	4AA]	.	4r	8r	(8dnL	8a-] 8ee-]
.	.	.	4c-X	.	.	.	.	4c-X	8dd-XJ)	4.a-X'~ 4.ee-X
.	.	.	.	.	4BBBn	.	4r	.	(8dnL	.
.	.	.	(8AA-X	.	.	.	.	8A-X	8eenJ	.
.	.	.	8AAAnL	.	[4BB-X	.	8r	8r	8g-XL)	[4a-'~ [4ee-
.	.	.	8En'J)	.	.	.	[8b-X	(8F-X	(8c-XJ	.
*	*	*	*	*	*	*	*	*clefC4	*	*
=4	=4	=4	=4	=4	=4	=4	=4	=4	=4	=4
2.r	2.r	2.r	2.r	2.r	4BB-]	.	8b-]	8g-X)	8dd-X)	8a-'~] 8ee-]
.	.	.	.	.	.	.	4.b'~	8r	8r	4.a-X'~ 4.ee-X
.	.	.	.	.	2A-X	.	.	8r	8r	.
.	.	.	.	.	.	.	.	4F	4cn	.
.	.	.	.	.	.	.	[4b'~	.	.	[4a-'~ [4ee-
.	.	.	.	.	.	.	.	(8e-X	(8b-X	.
=5	=5	=5	=5	=5	=5	=5	=5	=5	=5	=5
2.r	2.r	2.r	2.r	2.r	4F#X	.	2b]	8c#XL	8g#XL	2a-'~] 2ee-]
.	.	.	.	.	.	.	.	8d'J)	8aJ)	.
.	.	.	.	.	2GG	.	.	8d'~	8a'~L	.
.	.	.	.	.	.	.	.	4.d'~	8a'~J	.
.	.	.	.	.	.	.	[4b'~	.	4r	[4a-X'~ [4ee-X
*	*	*	*	*	*	*	*	*clefF4	*	*
=6	=6	=6	=6	=6	=6	=6	=6	=6	=6	=6
!!pagebreak:original
2.r	4r	2.r	2.r	2.r	[4G	.	2b]	4r	2.r	4a-'~] 4ee-]
.	[2B^	.	.	.	8GL]	.	.	4r	.	4r
.	.	.	.	.	[8FFnJ	.	.	.	.	.
.	.	.	.	.	4FF_	.	8bn'	(8B-XL	.	4r
.	.	.	.	.	.	.	8r	8AAJ	.	.
=7	=7	=7	=7	=7	=7	=7	=7	=7	=7	=7
2.r	4B]	2a^	2.r	2.r	4.FF]	.	8r	8GL)	4r	2.r
.	.	.	.	.	.	.	8g'	8G'J	.	.
.	2f#X^	.	.	.	.	.	4g'~	4r	4r	.
.	.	.	.	.	4.DD	.	.	.	.	.
.	.	[4b-X^	.	.	.	.	4r	4r	8r	.
.	.	.	.	.	.	.	.	.	(8dd-X^	.
=8	=8	=8	=8	=8	=8	=8	=8	=8	=8	=8
2.r	2g^	4b-]	2.r	2.r	4.FF#X	.	2.r	2.r	8e-XL	8r
.	.	.	.	.	.	.	.	.	8bb-X'J)	[8ee-X'~
.	.	[2A-X^	.	.	.	.	.	.	4r	4ee-]
.	.	.	.	.	4.D#X	.	.	.	.	.
.	[4A-X^ [4en	.	.	.	.	.	.	.	4r	[4f-X'~
=9	=9	=9	=9	=9	=9	=9	=9	=9	=9	=9
4r	2A-] 2e]	4A-]	2.r	2.r	2.E	.	2.r	2.r	2.r	8f-L]
.	.	.	.	.	.	.	.	.	.	(8dd-XJ
[2BBB#X	.	4f^	.	.	.	.	.	.	.	2fn)
.	4en^ [4dd	[4e^ [4ddn	.	.	.	.	.	.	.	.
=10	=10	=10	=10	=10	=10	=10	=10	=10	=10	=10
2BBB#]	2dd]	4e] 4dd]	2.r	2.r	2.B	.	2.r	2.r	2.r	(8dd-XL
.	.	.	.	.	.	.	.	.	.	8fJ)
.	.	2c^	.	.	.	.	.	.	.	4r
4r	(4c#X^	.	.	.	.	.	.	.	.	(8dd-L
.	.	.	.	.	.	.	.	.	.	8fJ)
=11	=11	=11	=11	=11	=11	=11	=11	=11	=11	=11
4r	4cn)	2d^	2.r	2.r	[4C#X	.	4r	4r	2.r	2.r
4r	2E^	.	.	.	8C#L]	.	8r	8r	.	.
.	.	.	.	.	[8cnJ	.	8dd'	(8d-X	.	.
[4GGG	.	[4g^	.	.	4c_	.	8r	8C)	.	.
.	.	.	.	.	.	.	8c'	8r	.	.
==	==	==	==	==	==	==	==	==	==	==
*-	*-	*-	*-	*-	*-	*-	*-	*-	*-	*-
!!!system-decoration: [(s1,s2,s3)][(s4,s5)]{(s6,s7)}[(s8,s9,s10)]
!!!ONB: Converted from MusicXML on 2019/06/05
